symbols/web/taxi_alert/materialsymbolsoutlined/taxi_alert_24px.svg

<svg xmlns="http://www.w3.org/2000/svg" height="24" width="24"><path d="m2 13 2.1-6q.15-.45.538-.725Q5.025 6 5.5 6H8V4h3.3q-.3.975-.3 2t.3 2H5.85L4.8 11h8.3q.975.975 2.25 1.488Q16.625 13 18 13q.5 0 .962-.062.463-.063.938-.188l.1.25v8q0 .425-.288.712Q19.425 22 19 22h-1q-.425 0-.712-.288Q17 21.425 17 21v-1H5v1q0 .425-.287.712Q4.425 22 4 22H3q-.425 0-.712-.288Q2 21.425 2 21Zm2 0v5Zm2.5 4q.625 0 1.062-.438Q8 16.125 8 15.5t-.438-1.062Q7.125 14 6.5 14t-1.062.438Q5 14.875 5 15.5t.438 1.062Q5.875 17 6.5 17Zm9 0q.625 0 1.062-.438Q17 16.125 17 15.5t-.438-1.062Q16.125 14 15.5 14t-1.062.438Q14 14.875 14 15.5t.438 1.062Q14.875 17 15.5 17Zm2.5-6q-2.075 0-3.537-1.463Q13 8.075 13 6t1.463-3.538Q15.925 1 18 1t3.538 1.462Q23 3.925 23 6q0 2.075-1.462 3.537Q20.075 11 18 11Zm-.5-4h1V3h-1Zm.5 2q.2 0 .35-.15.15-.15.15-.35 0-.2-.15-.35Q18.2 8 18 8q-.2 0-.35.15-.15.15-.15.35 0 .2.15.35.15.15.35.15ZM4 18h14v-5H4Z"/></svg>

<svg xmlns="http://www.w3.org/2000/svg" height="24" width="24"><path d="M2 13 4.1 7Q4.25 6.55 4.638 6.275Q5.025 6 5.5 6H8V4H11.3Q11 4.975 11 6Q11 7.025 11.3 8H5.85L4.8 11H13.1Q14.075 11.975 15.35 12.488Q16.625 13 18 13Q18.5 13 18.962 12.938Q19.425 12.875 19.9 12.75L20 13V21Q20 21.425 19.712 21.712Q19.425 22 19 22H18Q17.575 22 17.288 21.712Q17 21.425 17 21V20H5V21Q5 21.425 4.713 21.712Q4.425 22 4 22H3Q2.575 22 2.288 21.712Q2 21.425 2 21ZM4 13V18ZM6.5 17Q7.125 17 7.562 16.562Q8 16.125 8 15.5Q8 14.875 7.562 14.438Q7.125 14 6.5 14Q5.875 14 5.438 14.438Q5 14.875 5 15.5Q5 16.125 5.438 16.562Q5.875 17 6.5 17ZM15.5 17Q16.125 17 16.562 16.562Q17 16.125 17 15.5Q17 14.875 16.562 14.438Q16.125 14 15.5 14Q14.875 14 14.438 14.438Q14 14.875 14 15.5Q14 16.125 14.438 16.562Q14.875 17 15.5 17ZM18 11Q15.925 11 14.463 9.537Q13 8.075 13 6Q13 3.925 14.463 2.462Q15.925 1 18 1Q20.075 1 21.538 2.462Q23 3.925 23 6Q23 8.075 21.538 9.537Q20.075 11 18 11ZM17.5 7H18.5V3H17.5ZM18 9Q18.2 9 18.35 8.85Q18.5 8.7 18.5 8.5Q18.5 8.3 18.35 8.15Q18.2 8 18 8Q17.8 8 17.65 8.15Q17.5 8.3 17.5 8.5Q17.5 8.7 17.65 8.85Q17.8 9 18 9ZM4 18H18V13H4Z"/></svg>
